X:1
T:Qui la vous faict
T:Claude Goudimel
T:Source : Livre VII de chansons nouvelles à 4---Paris---N.du Chemin---1550. Editor : André Vierendeels (24/01/18). Notes : Original clefs : C1, C3, C4, F4 Original note values have been halved Editorial accidentals above the stave
T:Qui la vous faict
T:©
T:©
T:©
T:©
T:©
C:Claude Goudimel
Z:©
%%score [ 1 [ 2 3 ] 4 ]
L:1/8
Q:1/4=120
M:2/2
K:F
V:1 treble nm="Soprano" snm="S"
V:2 treble-8 nm="Tenor 1" snm="T 1"
V:3 treble-8 nm="Tenor 2" snm="T 2"
V:4 bass nm="Bass" snm="B"
V:1
 A2 AA A2 F2 | G2 B2 A2 F2 | FF F4 D2 | E2 G2 F2 B2 | BB B4 A2 | B2 G2 A2 z B | A2 G2 F2 F2 | %7
w: Qui la vous faict tant|re- gar- der, qui|la vous faict tant|re- gar- der, qui|la vous faict tant|re- gar- der, tant|re- gar- der, de|
w: Chas- cun de vous se|doibt gar- der, chas-|cun de vous se|doibt gar- der, chas-|cun de vous se|doibt gar- der, se|doibt gar- der, de|
 G2 G2 A4 | F2 GA Bc B2- | B2 A2 GF B2- | B2 A2 B2 F2 | G2 B2 A2 G2 | G2 F2 G4 :| F2 FF G2 A2 | %14
w: mon bien po-|vres en- * * * *||* vi- eux, de|mon bien, po- vres|en- vi- eux,|aul- tant vous vaul- droit|
w: l'es- clat qui|sort de _ _ _ _|_ _ _ _ _|* ses yeulx, de|l'es- clat qui sort|de ses yeulx.||
 G2 B2 A4 | A2 AA B2 B2 | A2 B2 c4 | A2 B2 G4 | F4 z2 F2 |"^b""^b" E2 E2 F3 F |"^b" F2 E2 F4 | %21
w: se- mi- dieux,|ren- con trer ce ser-|pent qui tu-|e, qui tu-|e le|po- vre pas- sant|de sa veu-|
w: |||||||
 F4 B2 BB | AFGG A2 F2 | B2 BB AFGG | A2 FF G4 | F8 | z4 z2 F2 | F2 F2 B4 | A2 d3 c B2 | %29
w: e, que fem- me|com- m'el- le per- fai- cte,|que fem- me com- me'l- le per-|fai- cte, per- fai-|cte,|qui|pour tous na-|vrer est pour- veu-|
w: ||||||||
 A2 F2 G2 G2 | F2 D2 F2 G2 | A2 DA B2 B2 | A2 d2 c2 B2 | ABcA BAGF |"^#""^b" ED G4 F2 | G8 |] %36
w: e: mais pour moy|seul gua- rir est|fa- cte, mais pour moy|seul gua- rir est|fai- * * * * * * *||cte.|
w: |||||||
V:2
 z4 d2 dd | c2 B2 c2 d2 | A2 d2 dddd | c2 c2 d2 z2 | g2 gg g2 c2 | g2 d2 eegd | f2 e2 d2 d2 | %7
w: Qui la vous|faict tant re- gar-|der, qui la vous faict tant|re- gar- der,|qui la vous faict tant|re- gar- der, qui la vous|faict tant re- gar-|
w: Chas- cun de|vous se doibt gar-|der, chas- cun de vous se|doibt gar- der,|chas- cun de vous se|doibt gar- der, chas- cun de|vous se doibt gar-|
 d4 z2 f2 | f2 c2 f4- | f2 e2 d3 c/B/ | c2 c2 B2 d2 | d2 B2 _e2 c2 | d2 d2 B4 :| d2 dd d2 f2 | %14
w: der, de|mon bien po-|* vres en- * *|* vi- eux, de|mon bien, po- vres|en- vi- eux,|aul- tant vous vaul- droit|
w: der, de|l'es- clat qui|_ sort de _ _|_ ses yeulx, de|l'es- clat qui sort|de ses yeulx,||
 d2 g2 e4 | f2 ff f2 f2 | f2 d2 g4 | f2 f2 e4 | d2 d2 d2 A2 | c4 d4 | c2 B2 c4 | d4 d2 dd | %22
w: se- mi- dieux,|ren- con- trer ce ser-|pent qui tu-|e, qui tu-|e le po- vre|pas- sant|de sa veu-|e, que fem- me|
w: ||||||||
 ffdd f2 d2 | d2 dd ffde | f2 Bd B2 c2 | d2 d2 d2 d2 | f4 c4 | d6 e2 | f4 d4 | z2 d2 d2 c2 | %30
w: com- m'el- le per- fai- cte,|que fem- me com- m'el- le per-|fai- cte, per- fai- *|cte, qui pour tous|na- vrer|est pour|veu- e:|mais pour moy|
w: ||||||||
 d4 z2 d2 | f2 f2 d4 | z2 d2 e2 f2 | f4 f2 B2 | G2 d2 d4 | B8 |] %36
w: seul, mais|pour moy seul|gua- rir est|fai- cte, gua-|rir est fai-|cte.|
w: ||||||
V:3
 z8 | z4 A2 AA | A2 F2 A2 B2 | G2 z2 d2 dd | d2 B2 d2 f2 | e2 d2 ccdB | c2 c2 A4 | z2 B2 c2 c2 | %8
w: |Qui la vous|faict tant re- gar-|der, qui la vous|faict tant re- gar-|der, qui la vous faict tant|re- gar- der,|de mon bien,|
w: |Chas- cun de|vous se doibt gar-|der, chas- cun de|vous se doibt gar-|der, chas- cun de vous se|doibt gar- der,|de l'es- clat|
 d2 e2 d3 c/B/ | c2 c2 B4 | z2 F2 B2 A2 | B2 d2 cBAG | A2 A2 G4 :| A2 AA B2 c2 | B2 d2 c4 | %15
w: po- vres en- * *|* vi- eux,|de mon bien|po- vres en- * * *|* vi- eux,|aul- tant vous vaul- droit|se- mi- dieux,|
w: qui sort de _ _|_ ses yeulx,|de l'es- clat|qui sort de _ _ _|_ ses yeulx,|||
 d2 dd d2 d2 | c2 B2 e4 | d2 d2 c4 | A2 A2 A2 F2 | G4 B2 B2 | A2 B3 A A2 | B4 G2 BB | cdBB c2 B2 | %23
w: ren- con- trer ce ser-|pent qui tu-|e, qui tu-|e le po- vre|pas- sant de|sa veu- * *|e, que fem- me-|com- m'el- le per- fai- cte,|
w: ||||||||
 G2 BB cdBB | c2 dB G4 | A8 | z2 A2 A2 A2 | B4 G2 B2 | c2 d2 BcdB | c2 d2 G4 | A2 A2 B2 B2 | %31
w: que fem- me com- m'el- le per-|fai- cte, per- fai-|cte,|qui pour tous|na- vrer est|pour- veu- * * * *||e, mais pour moy|
w: ||||||||
 A2 F2 G2 G2 | A2 DB A2 d2 | c4 d4 | c2 B2 A4 | G8 |] %36
w: seul gua- rir est|fa- cte, mais pour moy|seul gua-|rir est fai-|cte.|
w: |||||
V:4
 z8 | z4 z2 D,2 | D,D, D,4 B,,2 | C,2 E,2 D,2 G,2 | G,G, G,4 F,2 | G,2 B,2 A,2 G,2 | %6
w: |Qui|la vous faict tant|re- gar- der, qui|la vous faict tant|re- gar- der, tant|
w: |Chas-|cun de vous se|doibt gar- der, chas-|cun de vous se|doibt gar- der, se|
 F,2 C,2 D,2 D,2 | G,2 G,2 F,3 E, | D,2 C,2 B,,4 | z8 | z4 z2 D,2 |"^b" G,2 G,2 C,2 E,2 | %12
w: re- gar- der, de|mon bien, po- vres|en- vi- eux,||de|mon bien, po- vres|
w: doibt gar- der, de|l'es- clat qui sort|de ses yeulx,||de|l'es- clat qui sort|
 D,2 D,2 G,,4 :| D,2 D,D, G,2 F,2 | G,2 G,2 A,4 | D,2 D,D, B,,2 B,,2 | F,2 G,2 C,4 | D,2 B,,2 C,4 | %18
w: en- vi- eux,|aul- tant vous vaul- droit|se- mi- dieux,|ren- con- trer ce ser-|pent qui tu-|e, qui tu-|
w: de ses yeulx,||||||
 D,2 D,2 D,2 D,2 | C,4 B,,4 | F,2 G,2 F,4 | B,,2 B,2 B,B,G,G, | F,D, G,2 F,2 B,2 | %23
w: e le po- vre|pas- sant|de sa veu-|e, que fem- me com- m'el-|le per- fai- cte, que|
w: |||||
 B,B,G,G, F,D, G,2 |"^b" F,2 z B,, E,4 | D,4 z2 D,2 | D,2 D,2 F,4 | B,,2 B,3 A, G,2 | %28
w: fem- me com- m'el- le per- fai-|cte, per- fai-|cte, qui|pour tous na-|vrer est pour- veu-|
w: |||||
 F,2 D,2 G,2 G,2 | F,2 D,2 _E,2 E,2 | D,3 C, B,,2 G,,2 | D,4 G,,4 | z4 z2 B,,2 | %33
w: e: mais pour moy|seul, mais pour moy|seul gua- rir est|fa- cte,|mais|
w: |||||
 F,2 F,2 B,,2 B,,2 | C,2 G,,2 D,4 | G,,8 |] %36
w: pour moy seul gua-|rir est fai-|cte.|
w: |||

